src/img/set-ico.svg

<svg width="14" height="14" viewBox="0 0 14 14" fill="none" xmlns="http://www.w3.org/2000/svg">
<path d="M7 3.82812C5.25101 3.82812 3.82812 5.25104 3.82812 7C3.82812 8.74896 5.25101 10.1719 7 10.1719C7.32668 10.1719 7.649 10.1223 7.95802 10.0245C8.24597 9.93336 8.4055 9.62604 8.31436 9.33808C8.22325 9.05012 7.91585 8.89057 7.62795 8.98171C7.42582 9.04569 7.21457 9.07812 7 9.07812C5.85413 9.07812 4.92188 8.1459 4.92188 7C4.92188 5.85411 5.85413 4.92188 7 4.92188C8.14587 4.92188 9.07812 5.85411 9.07812 7C9.07812 7.19914 9.05012 7.39591 8.99486 7.58477C8.91007 7.87467 9.07635 8.17838 9.36625 8.26317C9.6562 8.34797 9.95985 8.18169 10.0447 7.89179C10.1291 7.60315 10.1719 7.30308 10.1719 7C10.1719 5.25104 8.74899 3.82812 7 3.82812Z" fill="#424552"/>
<path d="M12.3594 5.08597H12.084C12.0115 5.08597 11.9459 5.04033 11.9174 4.97148L11.9126 4.95966C11.8831 4.88873 11.8972 4.80979 11.9484 4.75855L12.1432 4.56381C12.7828 3.92413 12.7828 2.88329 12.1432 2.24361L11.7565 1.85691C11.4466 1.54703 11.0346 1.37637 10.5964 1.37637C10.1581 1.37637 9.74611 1.54703 9.43625 1.85691L9.24153 2.05163C9.19026 2.1029 9.11124 2.11695 9.04064 2.08761L9.03033 2.08335C8.9597 2.05417 8.91409 1.98852 8.91409 1.91609V1.64062C8.91409 0.735984 8.17811 0 7.27347 0H6.72659C5.82195 0 5.08597 0.735984 5.08597 1.64062V1.91609C5.08597 1.98852 5.04036 2.05417 4.97033 2.08307L4.95964 2.0875C4.88879 2.11698 4.80977 2.1029 4.75855 2.05166L4.56381 1.85691C4.25395 1.54703 3.84193 1.37637 3.4037 1.37637C2.96546 1.37637 2.55347 1.54703 2.24358 1.85691L1.85689 2.24355C1.21721 2.88326 1.21721 3.92407 1.85691 4.56378L2.05163 4.7585C2.10287 4.80977 2.11693 4.88871 2.08666 4.96166L2.08335 4.96964C2.0542 5.04027 1.98849 5.08591 1.91606 5.08591H1.64062C0.735984 5.08591 0 5.82189 0 6.72653V7.27341C0 8.17805 0.735984 8.91403 1.64062 8.91403H1.91603C1.98849 8.91403 2.05414 8.95967 2.08261 9.02852L2.08748 9.04034C2.11693 9.11127 2.10284 9.19021 2.0516 9.24145L1.85689 9.43619C1.547 9.74608 1.37635 10.1581 1.37635 10.5963C1.37635 11.0345 1.547 11.4465 1.85686 11.7564L2.24355 12.1431C2.55344 12.453 2.96546 12.6236 3.40367 12.6236C3.84193 12.6236 4.25392 12.453 4.56378 12.1431L4.7585 11.9484C4.80971 11.8971 4.88876 11.883 4.95939 11.9124L4.9697 11.9167C5.04033 11.9458 5.08594 12.0115 5.08594 12.0839V12.3594C5.08594 13.264 5.82192 14 6.72656 14H7.27344C8.17808 14 8.91406 13.264 8.91406 12.3594V12.0839C8.91406 12.0115 8.95967 11.9458 9.0297 11.9169L9.04039 11.9125C9.11129 11.8831 9.19026 11.8971 9.24148 11.9483L9.43622 12.1431C9.74608 12.453 10.1581 12.6236 10.5963 12.6236C11.0346 12.6236 11.4466 12.453 11.7564 12.1431L12.1431 11.7564C12.453 11.4465 12.6237 11.0345 12.6237 10.5963C12.6237 10.1581 12.453 9.74608 12.1431 9.43622L11.9484 9.24148C11.8971 9.19023 11.8831 9.11129 11.9125 9.04036L11.9167 9.03036C11.9458 8.95973 12.0115 8.91409 12.0839 8.91409H12.3594C13.264 8.91409 14 8.17811 14 7.27347V6.72659C14 5.82195 13.264 5.08597 12.3594 5.08597ZM12.9062 7.27344C12.9062 7.57498 12.6609 7.82031 12.3594 7.82031H12.0839C11.567 7.82031 11.1045 8.13138 10.9057 8.61282L10.9022 8.6214C10.7026 9.10263 10.8096 9.64953 11.175 10.0149L11.3697 10.2096C11.473 10.3129 11.5299 10.4502 11.5299 10.5963C11.5299 10.7424 11.473 10.8797 11.3697 10.983L10.983 11.3697C10.8797 11.473 10.7424 11.5299 10.5963 11.5299C10.4502 11.5299 10.3129 11.473 10.2096 11.3697L10.0148 11.1749C9.64931 10.8095 9.10208 10.7025 8.62055 10.9025L8.61284 10.9057C8.1314 11.1045 7.82031 11.567 7.82031 12.0839V12.3594C7.82031 12.6609 7.57498 12.9062 7.27344 12.9062H6.72656C6.42502 12.9062 6.17969 12.6609 6.17969 12.3594V12.0839C6.17969 11.567 5.8686 11.1045 5.38658 10.9055L5.3792 10.9024C5.21814 10.8355 5.04979 10.803 4.88327 10.803C4.55211 10.803 4.22836 10.9318 3.98513 11.175L3.79039 11.3697C3.68709 11.473 3.54979 11.5299 3.4037 11.5299C3.25762 11.5299 3.12028 11.473 3.017 11.3697L2.6303 10.983C2.527 10.8797 2.47012 10.7424 2.47012 10.5963C2.47012 10.4502 2.527 10.3129 2.6303 10.2096L2.82505 10.0149C3.19039 9.64953 3.29741 9.10263 3.09783 8.6214L3.09427 8.61282C2.89543 8.13138 2.43296 7.82031 1.91606 7.82031H1.64062C1.33908 7.82031 1.09375 7.57498 1.09375 7.27344V6.72656C1.09375 6.42502 1.33908 6.17969 1.64062 6.17969H1.91606C2.43299 6.17969 2.89546 5.86863 3.09501 5.38543L3.09755 5.37923C3.29749 4.89787 3.19052 4.35066 2.82502 3.98513L2.6303 3.79042C2.41705 3.57716 2.41705 3.23023 2.6303 3.017L3.01697 2.6303C3.1203 2.52703 3.25762 2.47012 3.4037 2.47012C3.54979 2.47012 3.68711 2.527 3.79039 2.6303L3.98516 2.82507C4.35072 3.19055 4.89795 3.29752 5.37945 3.09747L5.38716 3.09427C5.8686 2.89548 6.17969 2.43302 6.17969 1.91609V1.64062C6.17969 1.33908 6.42502 1.09375 6.72656 1.09375H7.27344C7.57498 1.09375 7.82031 1.33908 7.82031 1.64062V1.91609C7.82031 2.43302 8.1314 2.89548 8.61342 3.09449L8.6208 3.09755C9.10208 3.29744 9.64931 3.1905 10.0149 2.82502L10.2096 2.63025C10.3129 2.52697 10.4502 2.4701 10.5963 2.4701C10.7424 2.4701 10.8797 2.527 10.983 2.63028L11.3697 3.01697C11.5829 3.2302 11.5829 3.57714 11.3697 3.79036L11.175 3.98513C10.8095 4.35066 10.7025 4.89784 10.9016 5.3772L10.9057 5.38718C11.1046 5.86863 11.567 6.17969 12.0839 6.17969H12.3594C12.6609 6.17969 12.9062 6.42502 12.9062 6.72656V7.27344Z" fill="#424552"/>
</svg>

<svg width="14" height="14" fill="none" xmlns="http://www.w3.org/2000/svg"><path d="M7 3.828A3.175 3.175 0 003.828 7a3.175 3.175 0 004.13 3.024.547.547 0 00-.33-1.042 2.078 2.078 0 111.367-1.397.547.547 0 101.05.307A3.176 3.176 0 007 3.828z" fill="#424552"/><path d="M12.36 5.086h-.276a.182.182 0 01-.167-.115l-.004-.011a.183.183 0 01.035-.201l.195-.195c.64-.64.64-1.68 0-2.32l-.386-.387a1.63 1.63 0 00-1.16-.48c-.439 0-.85.17-1.16.48l-.195.195a.183.183 0 01-.201.036l-.01-.005a.183.183 0 01-.117-.167v-.275C8.914.736 8.178 0 7.274 0h-.547c-.905 0-1.641.736-1.641 1.64v.276a.182.182 0 01-.116.167l-.01.004a.183.183 0 01-.201-.035l-.195-.195a1.63 1.63 0 00-1.16-.48c-.439 0-.85.17-1.16.48l-.387.387c-.64.64-.64 1.68 0 2.32l.195.194c.05.052.065.13.035.204l-.004.008a.183.183 0 01-.167.116h-.275C.736 5.086 0 5.822 0 6.726v.547c0 .905.736 1.641 1.64 1.641h.276c.072 0 .138.046.167.115l.004.011c.03.071.016.15-.035.201l-.195.195c-.31.31-.48.722-.48 1.16 0 .438.17.85.48 1.16l.387.387c.31.31.721.48 1.16.48.438 0 .85-.17 1.16-.48l.194-.195a.183.183 0 01.201-.036l.01.005a.183.183 0 01.117.167v.275c0 .905.736 1.641 1.64 1.641h.547c.905 0 1.641-.736 1.641-1.64v-.276c0-.072.046-.138.116-.167l.01-.005a.184.184 0 01.201.036l.195.195c.31.31.722.48 1.16.48.439 0 .85-.17 1.16-.48l.387-.387c.31-.31.48-.722.48-1.16 0-.438-.17-.85-.48-1.16l-.195-.195a.183.183 0 01-.036-.2l.005-.01a.183.183 0 01.167-.117h.275c.905 0 1.641-.736 1.641-1.64v-.547c0-.905-.736-1.641-1.64-1.641zm.546 2.187a.547.547 0 01-.547.547h-.275c-.517 0-.98.311-1.178.793l-.004.008c-.2.482-.092 1.029.273 1.394l.195.195a.543.543 0 010 .773l-.387.387a.543.543 0 01-.773 0l-.195-.195a1.274 1.274 0 00-1.394-.273l-.008.004a1.273 1.273 0 00-.793 1.178v.275a.547.547 0 01-.547.547h-.546a.547.547 0 01-.547-.547v-.275c0-.517-.311-.98-.793-1.178l-.008-.004a1.268 1.268 0 00-1.394.273l-.195.195a.543.543 0 01-.773 0l-.387-.387a.543.543 0 010-.773l.195-.195c.365-.365.472-.912.273-1.394l-.004-.008a1.273 1.273 0 00-1.178-.793h-.275a.547.547 0 01-.547-.547v-.546c0-.302.245-.547.547-.547h.275c.517 0 .98-.311 1.179-.795l.003-.006c.2-.481.093-1.028-.273-1.394L2.63 3.79a.547.547 0 010-.773l.387-.387a.544.544 0 01.773 0l.195.195a1.27 1.27 0 001.394.272l.008-.003c.482-.199.793-.661.793-1.178v-.275c0-.302.245-.547.547-.547h.546c.302 0 .547.245.547.547v.275c0 .517.311.98.793 1.178l.008.004c.481.2 1.028.093 1.394-.273l.195-.195a.543.543 0 01.773 0l.387.387a.548.548 0 010 .773l-.195.195a1.273 1.273 0 00-.273 1.392l.004.01c.199.482.661.793 1.178.793h.275c.302 0 .547.245.547.547v.546z" fill="#424552"/></svg>
